X:11
T:Girls of Banbridge (The)
R:Jig
C:Irish, traditional
O:Cape Breton setting. 3rd turn composed by Johnny Wilmot.
D:Another Side of Cape Breton, Breton Books and Music
B:ONMI
Z:Paul Stewart Cranford (P.S.C.), <http://www.cranfordpub.com>
L:1/8
Q:300
M:6/8
K:D
"ABCB"E|DFA dcB|BAG FED|FAD FAD|CEA, CEA,|  
|:B|AFA def|gfg efg|f2g fed|ceee2B|  
AFA def|agf efg|(f/g/a)f gec|edd d2:|  
"3rd turn by Johnny Wilmot"f/g/|a3d'2f|g3gfg|a2b agf|efe ecA|  
a3d'2f|g3gfg|bag fge|d3d2:|
